src/lib/packages/icons/src/assets/line/sim-card.svg

<svg width="24" height="24" viewBox="0 0 24 24" fill="none" xmlns="http://www.w3.org/2000/svg">
<path d="M19.0911 7.03003L14.97 2.90894C14.551 2.48994 13.9709 2.25 13.3789 2.25H8C5.582 2.25 4.25 3.582 4.25 6V18C4.25 20.418 5.582 21.75 8 21.75H16C18.418 21.75 19.75 20.418 19.75 18V8.62109C19.75 8.02909 19.5101 7.44903 19.0911 7.03003ZM18.25 18C18.25 19.577 17.577 20.25 16 20.25H8C6.423 20.25 5.75 19.577 5.75 18V6C5.75 4.423 6.423 3.75 8 3.75H13.3789C13.5759 3.75 13.7699 3.82997 13.9089 3.96997L18.03 8.09106C18.17 8.23106 18.25 8.42409 18.25 8.62109V18ZM14.5 9.25H9.5C8.091 9.25 7.25 10.091 7.25 11.5V16.5C7.25 17.909 8.091 18.75 9.5 18.75H14.5C15.909 18.75 16.75 17.909 16.75 16.5V11.5C16.75 10.091 15.909 9.25 14.5 9.25ZM15.25 11.5V13.25H12.75V10.75H14.5C15.089 10.75 15.25 10.911 15.25 11.5ZM8.75 16.5V11.5C8.75 10.911 8.911 10.75 9.5 10.75H11.25V17.25H9.5C8.911 17.25 8.75 17.089 8.75 16.5ZM14.5 17.25H12.75V14.75H15.25V16.5C15.25 17.089 15.089 17.25 14.5 17.25Z" fill="currentColor"/>
</svg>

<svg xmlns="http://www.w3.org/2000/svg" width="24" height="24" fill="none"><path fill="currentColor" d="M19.091 7.03 14.97 2.909c-.419-.42-1-.659-1.591-.659H8C5.582 2.25 4.25 3.582 4.25 6v12c0 2.418 1.332 3.75 3.75 3.75h8c2.418 0 3.75-1.332 3.75-3.75V8.621c0-.592-.24-1.172-.659-1.591ZM18.25 18c0 1.577-.673 2.25-2.25 2.25H8c-1.577 0-2.25-.673-2.25-2.25V6c0-1.577.673-2.25 2.25-2.25h5.379c.197 0 .39.08.53.22l4.121 4.121c.14.14.22.333.22.53V18ZM14.5 9.25h-5c-1.409 0-2.25.841-2.25 2.25v5c0 1.409.841 2.25 2.25 2.25h5c1.409 0 2.25-.841 2.25-2.25v-5c0-1.409-.841-2.25-2.25-2.25Zm.75 2.25v1.75h-2.5v-2.5h1.75c.589 0 .75.161.75.75Zm-6.5 5v-5c0-.589.161-.75.75-.75h1.75v6.5H9.5c-.589 0-.75-.161-.75-.75Zm5.75.75h-1.75v-2.5h2.5v1.75c0 .589-.161.75-.75.75Z"/></svg>
